X:13
T:Allemande
R:
C:Tielman Susato
H:
N:2 (petit livre) / 6
B:
O:Flandres
A:
Z:<anamnese@laposte.net> -- http://anamnese.fr.st
M:C
L:1/4
Q:1/4=110
K:C
V:1
 zcga | gfed | ccd/e/f | ede2 | cc ga | gfed | ccde/f/ |
(g/f/)e/d/e2 | zcef | edc2 | ABc2 | ABc2 | zcef | edc2 | ABc2 | ABc2 :|]
V:2
%%MIDI transpose -12
 zGGc | cccA | AEBc | cAA2 | GGcc | cccA | AEBc-|
c/c/c/A/ c2 | zAcc | cAAG | cBAG | cBA2 | zAcc | cAAG | cBAG | cGG2 :|]
